public/icons/compound.svg

<svg width="54" height="54" viewBox="0 0 54 54" fill="none" xmlns="http://www.w3.org/2000/svg">
<path d="M54 25.5173C54 26.5069 54 27.4976 54 28.4872C53.9433 28.5205 53.9489 28.5761 53.9455 28.6306C53.9366 28.8185 53.9322 29.0076 53.9144 29.1955C53.8388 30.0149 53.7387 30.83 53.5997 31.6417C53.1972 33.9978 52.4823 36.2561 51.4727 38.4188C50.8445 39.7653 50.1095 41.054 49.2611 42.2771C48.2271 43.7704 47.0696 45.1592 45.7542 46.4145C45.3417 46.8093 44.9236 47.1962 44.49 47.5676C43.745 48.2058 42.9656 48.8007 42.1528 49.35C41.0265 50.1116 39.8523 50.791 38.6226 51.377C37.663 51.834 36.6812 52.2354 35.675 52.5779C34.443 52.9971 33.1843 53.3228 31.9034 53.5563C31.2396 53.6775 30.5725 53.7743 29.902 53.8432C29.4684 53.8877 29.0359 53.9333 28.6 53.9466C28.5533 53.9477 28.5099 53.9544 28.4833 54C27.4937 54 26.503 54 25.5134 54C25.4867 53.9544 25.4434 53.9466 25.3967 53.9466C25.2621 53.9489 25.1276 53.9311 24.993 53.9233C24.1802 53.8732 23.373 53.7732 22.5713 53.6386C21.087 53.3907 19.6315 53.0271 18.2072 52.5345C16.8396 52.0608 15.5197 51.4815 14.2444 50.7988C13.2559 50.2695 12.3042 49.6813 11.3913 49.032C10.0248 48.0602 8.7539 46.9794 7.59531 45.7663C7.20726 45.3604 6.827 44.9479 6.46007 44.5221C5.78627 43.7415 5.16584 42.9198 4.58988 42.0658C3.90273 41.0462 3.2923 39.9832 2.74859 38.8791C2.22378 37.8117 1.77235 36.7142 1.39209 35.589C1.02516 34.5004 0.732735 33.3918 0.513693 32.2643C0.361364 31.4827 0.237944 30.6977 0.157888 29.9049C0.114525 29.4712 0.0644896 29.0387 0.0533707 28.6028C0.0522588 28.5561 0.0455874 28.5128 0 28.4861C0 27.4965 0 26.5058 0 25.5162C0.0455874 25.4895 0.0533707 25.4461 0.0533707 25.3994C0.0544826 25.147 0.0867274 24.8979 0.104518 24.6466C0.152329 23.9962 0.23572 23.3501 0.339126 22.7064C0.593749 21.1308 0.97735 19.5874 1.50772 18.0808C1.89799 16.9722 2.35832 15.8937 2.88646 14.844C3.44908 13.7243 4.09286 12.6547 4.80336 11.6239C5.68842 10.3397 6.69246 9.15437 7.77544 8.03467C8.09455 7.70555 8.4359 7.39977 8.77169 7.08733C9.35099 6.54805 9.95919 6.04213 10.5874 5.56067C11.7894 4.64001 13.058 3.82164 14.3978 3.11558C15.6821 2.43953 17.0097 1.86356 18.3851 1.40101C19.4781 1.03408 20.59 0.737198 21.7219 0.517039C22.508 0.363595 23.2974 0.239061 24.0946 0.157891C24.5283 0.114527 24.9608 0.0644909 25.3967 0.0533718C25.4434 0.0522599 25.4867 0.0455884 25.5134 0C26.503 0 27.4937 0 28.4833 0C28.5133 0.0511479 28.5622 0.0522599 28.6133 0.0533718C29.0948 0.0644909 29.5729 0.114527 30.0499 0.169011C31.0695 0.285761 32.0791 0.45922 33.0798 0.687162C35.129 1.15528 37.0937 1.86023 38.975 2.79201C40.1536 3.37576 41.2811 4.04625 42.363 4.79568C43.6594 5.6941 44.8658 6.70149 45.99 7.80562C46.5281 8.33378 47.0362 8.89418 47.5277 9.46682C48.2015 10.2529 48.8264 11.0758 49.4068 11.933C50.2274 13.1472 50.9345 14.4237 51.5494 15.7536C51.9652 16.6531 52.3266 17.5738 52.6379 18.5133C52.9837 19.5563 53.2639 20.6171 53.4752 21.6956C53.6297 22.4906 53.7587 23.289 53.8399 24.0951C53.8833 24.5288 53.9322 24.9613 53.9444 25.3972C53.9477 25.4483 53.9544 25.4917 54 25.5173ZM36.7335 38.1352C36.7868 38.1097 36.8146 38.0963 36.8424 38.0819C37.5974 37.6738 38.3502 37.2602 39.1096 36.8599C39.5065 36.6508 39.6867 36.3362 39.6867 35.8903C39.6833 30.5676 39.6844 25.2437 39.6855 19.921C39.6855 18.9748 39.2819 18.2676 38.4591 17.7928C36.4944 16.6564 34.5331 15.5134 32.5706 14.3726C30.6192 13.2395 28.6689 12.1043 26.7165 10.9723C25.8692 10.4809 24.9497 11.0102 24.9497 11.9875C24.9497 14.1113 24.9508 16.235 24.9463 18.3588C24.9463 18.4733 24.9841 18.5311 25.0798 18.5889C28.5778 20.6838 32.0747 22.7808 35.5716 24.879C35.7339 24.9769 35.8896 25.0836 36.0252 25.217C36.5167 25.6952 36.7357 26.2811 36.7346 26.9639C36.7313 30.6221 36.7324 34.2802 36.7335 37.9384C36.7335 37.9951 36.7335 38.053 36.7335 38.1352ZM34.4708 33.443C34.4708 31.6661 34.4719 29.8882 34.4697 28.1114C34.4697 27.959 34.4641 27.8045 34.4385 27.6544C34.3118 26.8994 33.8926 26.3579 33.2332 25.9743C30.4313 24.3464 27.6338 22.7108 24.8352 21.0774C23.7166 20.4247 22.598 19.7742 21.4817 19.1204C21.2171 18.9659 20.9369 18.9092 20.6389 18.9726C20.0952 19.0871 19.7394 19.5396 19.7383 20.1123C19.7371 22.3528 19.7394 24.5933 19.7338 26.8338C19.7338 26.9872 19.7872 27.0628 19.9106 27.1362C23.3108 29.1666 26.7087 31.2002 30.1077 33.2317C30.9016 33.7065 31.2975 34.3992 31.2963 35.3266C31.293 37.2835 31.2952 39.2405 31.2952 41.1974C31.2952 41.233 31.2963 41.2697 31.2952 41.3053C31.2919 41.3754 31.3264 41.3809 31.3786 41.3553C31.4153 41.3375 31.4509 41.3175 31.4854 41.2986C32.2881 40.8472 33.0876 40.388 33.8959 39.9465C34.2951 39.7286 34.4752 39.4162 34.4741 38.9636C34.4663 37.1234 34.4708 35.2832 34.4708 33.443ZM29.0314 39.0793C29.0314 38.1931 29.0348 37.3069 29.0303 36.4207C29.0259 35.5267 28.63 34.8495 27.8595 34.4003C23.9278 32.1053 19.994 29.8126 16.0612 27.5187C15.2329 27.0361 14.3033 27.5554 14.2989 28.5139C14.2922 30.2418 14.2922 31.9686 14.2989 33.6965C14.3033 34.7439 14.767 35.5445 15.6576 36.0904C18.4051 37.775 21.1559 39.4551 23.9045 41.1374C24.9085 41.7523 25.9137 42.3661 26.9177 42.9832C27.2257 43.1722 27.5548 43.2534 27.9106 43.1878C28.5844 43.0643 29.027 42.5262 29.0292 41.819C29.0348 40.9061 29.0314 39.9932 29.0314 39.0793Z" fill="#070A0E"/>
<path d="M36.7334 38.1348C36.7334 38.0525 36.7334 37.9947 36.7334 37.938C36.7334 34.2798 36.7312 30.6216 36.7346 26.9634C36.7357 26.2807 36.5166 25.6947 36.0252 25.2166C35.8884 25.0843 35.7339 24.9764 35.5715 24.8786C32.0746 22.7815 28.5777 20.6833 25.0797 18.5885C24.983 18.5307 24.9452 18.4728 24.9463 18.3583C24.9496 16.2346 24.9485 14.1108 24.9496 11.9871C24.9496 11.0108 25.8681 10.4804 26.7164 10.9719C28.6689 12.1038 30.6192 13.238 32.5705 14.3721C34.533 15.5129 36.4944 16.656 38.4591 17.7923C39.2819 18.2682 39.6855 18.9743 39.6855 19.9205C39.6844 25.2433 39.6844 30.5671 39.6866 35.8898C39.6866 36.3357 39.5065 36.6504 39.1096 36.8594C38.3501 37.2597 37.5974 37.6733 36.8424 38.0814C36.8157 38.0959 36.7868 38.1092 36.7334 38.1348Z" fill="#00D294"/>
<path d="M34.4714 33.4417C34.4714 35.2819 34.4669 37.1222 34.4747 38.9624C34.4769 39.4138 34.2957 39.7274 33.8965 39.9453C33.0882 40.3867 32.2887 40.846 31.4859 41.2974C31.4504 41.3174 31.4148 41.3363 31.3792 41.3541C31.3269 41.3797 31.2925 41.3741 31.2958 41.3041C31.298 41.2685 31.2958 41.2318 31.2958 41.1962C31.2958 39.2392 31.2936 37.2823 31.2969 35.3253C31.298 34.398 30.9022 33.7053 30.1083 33.2305C26.7093 31.199 23.3113 29.1653 19.9112 27.135C19.7877 27.0616 19.7344 26.986 19.7344 26.8325C19.741 24.592 19.7377 22.3515 19.7388 20.111C19.7388 19.5384 20.0946 19.0858 20.6395 18.9713C20.9374 18.9079 21.2176 18.9646 21.4823 19.1192C22.5997 19.773 23.7183 20.4246 24.8357 21.0762C27.6343 22.7096 30.4319 24.3452 33.2338 25.973C33.8932 26.3555 34.3112 26.8981 34.4391 27.6531C34.4647 27.8032 34.4691 27.9578 34.4702 28.1101C34.4725 29.8869 34.4714 31.6649 34.4714 33.4417Z" fill="#00D294"/>
<path d="M29.0323 39.0781C29.0323 39.991 29.0356 40.905 29.0311 41.8179C29.0278 42.5239 28.5864 43.0632 27.9126 43.1866C27.5568 43.2511 27.2277 43.1711 26.9197 42.982C25.9167 42.3649 24.9116 41.7512 23.9064 41.1363C21.1567 39.4539 18.407 37.7739 15.6596 36.0893C14.7689 35.5434 14.3053 34.7428 14.3008 33.6954C14.2931 31.9675 14.2942 30.2407 14.3008 28.5127C14.3042 27.5543 15.2348 27.0339 16.0632 27.5176C19.9959 29.8115 23.9298 32.1031 27.8614 34.3992C28.632 34.8484 29.0278 35.5256 29.0323 36.4195C29.0367 37.3057 29.0323 38.1919 29.0323 39.0781Z" fill="#00D294"/>
</svg>

<svg width="54" height="54" fill="none" xmlns="http://www.w3.org/2000/svg"><path d="M54 25.517v2.97c-.057.034-.051.09-.054.144-.01.188-.014.377-.032.564-.075.82-.175 1.635-.314 2.447a26.515 26.515 0 0 1-2.127 6.777 26.166 26.166 0 0 1-2.212 3.858 26.675 26.675 0 0 1-3.507 4.137c-.412.395-.83.782-1.264 1.154a25.779 25.779 0 0 1-2.337 1.782 27.146 27.146 0 0 1-6.478 3.228 26.39 26.39 0 0 1-5.773 1.265c-.434.045-.866.09-1.302.104-.047 0-.09.007-.117.053h-2.97c-.026-.046-.07-.053-.116-.053-.135.002-.27-.016-.404-.024-.813-.05-1.62-.15-2.422-.284a26.858 26.858 0 0 1-4.364-1.105 27.35 27.35 0 0 1-3.963-1.735 26.495 26.495 0 0 1-2.853-1.767 26.3 26.3 0 0 1-3.796-3.266 32.596 32.596 0 0 1-1.135-1.244 25.998 25.998 0 0 1-1.87-2.456 27.154 27.154 0 0 1-3.198-6.477 25.805 25.805 0 0 1-.878-3.325 25.963 25.963 0 0 1-.356-2.36c-.043-.433-.094-.865-.105-1.301 0-.047-.007-.09-.053-.117v-2.97c.046-.026.053-.07.053-.117.001-.252.034-.501.052-.752.047-.65.13-1.297.234-1.94a26.746 26.746 0 0 1 2.547-7.863 27.163 27.163 0 0 1 1.917-3.22 28.175 28.175 0 0 1 2.972-3.59c.32-.328.66-.634.997-.947a26.839 26.839 0 0 1 5.626-3.972 27.096 27.096 0 0 1 3.987-1.714 26.187 26.187 0 0 1 3.337-.884 26.266 26.266 0 0 1 2.373-.36c.433-.042.866-.093 1.302-.104.046 0 .09-.007.116-.053h2.97c.03.051.08.052.13.053.482.011.96.062 1.437.116 1.02.117 2.03.29 3.03.518a26.58 26.58 0 0 1 5.895 2.105 26.957 26.957 0 0 1 3.388 2.004 27.653 27.653 0 0 1 3.627 3.01 26.529 26.529 0 0 1 1.538 1.66 27.317 27.317 0 0 1 1.879 2.467 27.145 27.145 0 0 1 3.23 6.58c.347 1.043.627 2.104.838 3.183a26.5 26.5 0 0 1 .365 2.4c.043.433.092.865.104 1.301.004.051.01.095.056.12ZM36.733 38.135l.11-.053c.754-.408 1.507-.822 2.267-1.222.397-.21.577-.524.577-.97-.004-5.322-.003-10.646-.002-15.969 0-.946-.403-1.653-1.226-2.128-1.965-1.137-3.926-2.28-5.888-3.42-1.952-1.133-3.902-2.269-5.854-3.4-.848-.492-1.767.037-1.767 1.014 0 2.124 0 4.248-.004 6.372 0 .114.038.172.134.23 3.498 2.095 6.995 4.192 10.492 6.29.162.098.318.205.453.338.492.478.71 1.064.71 1.747-.004 3.658-.003 7.316-.002 10.974v.197Zm-2.262-4.692-.001-5.332c0-.152-.006-.306-.032-.457-.126-.755-.545-1.296-1.205-1.68-2.802-1.628-5.6-3.263-8.398-4.897-1.118-.652-2.237-1.303-3.353-1.957a1.149 1.149 0 0 0-.843-.147c-.544.114-.9.567-.9 1.14-.002 2.24 0 4.48-.005 6.72 0 .154.053.23.177.303 3.4 2.03 6.798 4.064 10.197 6.096.794.474 1.19 1.167 1.188 2.095-.003 1.956 0 3.913 0 5.87v.108c-.004.07.03.076.083.05.036-.017.072-.037.106-.056.803-.452 1.603-.911 2.41-1.352.4-.218.58-.53.58-.983-.009-1.84-.004-3.68-.004-5.521Zm-5.44 5.636c0-.886.004-1.772 0-2.658-.005-.894-.401-1.572-1.171-2.02-3.932-2.296-7.866-4.588-11.799-6.882-.828-.483-1.758.036-1.762.995a668.145 668.145 0 0 0 0 5.183c.004 1.047.468 1.847 1.359 2.393 2.747 1.685 5.498 3.365 8.246 5.047l3.014 1.846c.308.19.637.27.993.205.673-.124 1.116-.662 1.118-1.369.006-.913.002-1.826.002-2.74Z" fill="#070A0E"/><path d="M36.733 38.135v-.197c0-3.658-.002-7.316.002-10.975 0-.682-.218-1.268-.71-1.746a2.492 2.492 0 0 0-.453-.338c-3.497-2.098-6.994-4.196-10.492-6.29-.097-.058-.135-.116-.134-.23.004-2.124.002-4.248.004-6.372 0-.976.918-1.507 1.766-1.015 1.953 1.132 3.903 2.266 5.855 3.4 1.962 1.14 3.923 2.284 5.888 3.42.823.476 1.226 1.182 1.226 2.128 0 5.323 0 10.647.002 15.97 0 .446-.18.76-.577.97-.76.4-1.513.813-2.268 1.221-.026.015-.055.028-.109.054Z" fill="#00D294"/><path d="M34.471 33.442c0 1.84-.004 3.68.004 5.52.002.452-.18.765-.578.983-.809.442-1.608.901-2.411 1.352-.036.02-.071.04-.107.057-.052.026-.087.02-.083-.05.002-.035 0-.072 0-.108 0-1.957-.002-3.914 0-5.87.002-.928-.394-1.62-1.188-2.096-3.399-2.031-6.797-4.065-10.197-6.095-.123-.073-.177-.149-.177-.303.007-2.24.004-4.48.005-6.721 0-.573.356-1.025.9-1.14.298-.063.579-.006.843.148 1.118.654 2.236 1.306 3.354 1.957 2.798 1.634 5.596 3.27 8.398 4.897.66.383 1.077.925 1.205 1.68.026.15.03.305.031.457.002 1.777.001 3.555.001 5.332Z" fill="#00D294"/><path d="M29.032 39.078c0 .913.004 1.827 0 2.74-.004.706-.446 1.245-1.12 1.369a1.376 1.376 0 0 1-.992-.205c-1.003-.617-2.008-1.23-3.014-1.846-2.75-1.682-5.499-3.362-8.246-5.047-.891-.546-1.355-1.346-1.36-2.394a626.119 626.119 0 0 1 0-5.182c.004-.959.935-1.48 1.763-.995 3.933 2.293 7.867 4.585 11.798 6.881.771.45 1.167 1.127 1.171 2.02.005.887 0 1.773 0 2.66Z" fill="#00D294"/></svg>
